build/img/region-pin.svg

<svg width="12" height="16" viewBox="0 0 12 16" fill="none" xmlns="http://www.w3.org/2000/svg">
<path d="M9.96432 2.05069C8.90597 1.0961 7.49874 0.570312 6.00209 0.570312C4.50515 0.570312 3.09821 1.0961 2.03986 2.05069C0.081239 3.81703 -0.162164 7.14044 1.51273 9.15399L6.00209 15.0017L10.4847 9.16215C12.1663 7.14044 11.9229 3.81703 9.96432 2.05069ZM6.05381 7.4227C4.92621 7.4227 4.00841 6.59488 4.00841 5.57783C4.00841 4.56078 4.92621 3.73295 6.05381 3.73295C7.18141 3.73295 8.09921 4.56078 8.09921 5.57783C8.09921 6.59488 7.18141 7.4227 6.05381 7.4227Z" fill="#707B8C"/>
</svg>

<svg width="12" height="16" fill="none" xmlns="http://www.w3.org/2000/svg"><path d="M9.964 2.05C8.906 1.097 7.5.57 6.002.57c-1.497 0-2.904.526-3.962 1.48C.08 3.818-.162 7.14 1.513 9.155l4.49 5.848 4.482-5.84c1.681-2.022 1.438-5.345-.52-7.111zm-3.91 5.373c-1.128 0-2.046-.828-2.046-1.845s.918-1.845 2.046-1.845c1.127 0 2.045.828 2.045 1.845s-.918 1.845-2.045 1.845z" fill="#707B8C"/></svg>
